build/img/svg/swipe-icon.svg

<svg width="25" height="25" viewBox="0 0 25 25" fill="none" xmlns="http://www.w3.org/2000/svg">
<g clip-path="url(#clip0)">
<path d="M22.283 2.1731H15.761C15.461 2.1731 15.2175 2.4166 15.2175 2.71661C15.2175 3.01662 15.461 3.26012 15.761 3.26012H22.283C22.583 3.26012 22.8265 3.01662 22.8265 2.71661C22.8265 2.4166 22.583 2.1731 22.283 2.1731Z" fill="white"/>
<path d="M22.6678 2.33297L20.4938 0.158972C20.2818 -0.0529908 19.9372 -0.0529908 19.7252 0.158972C19.5133 0.370936 19.5133 0.715529 19.7252 0.927492L21.5144 2.7167L19.7242 4.50697C19.5122 4.71893 19.5122 5.06353 19.7242 5.27549C19.8307 5.38091 19.9698 5.43421 20.109 5.43421C20.2481 5.43421 20.3872 5.38096 20.4938 5.27549L22.6678 3.10149C22.8797 2.88948 22.8797 2.54494 22.6678 2.33297Z" fill="white"/>
<path d="M8.15237 2.1731H1.63043C1.33042 2.1731 1.08691 2.4166 1.08691 2.71661C1.08691 3.01662 1.33042 3.26012 1.63043 3.26012H8.15237C8.45238 3.26012 8.69589 3.01662 8.69589 2.71661C8.69589 2.4166 8.45238 2.1731 8.15237 2.1731Z" fill="white"/>
<path d="M2.39866 2.7167L4.18787 0.927492C4.39983 0.715529 4.39983 0.370936 4.18787 0.158972C3.9759 -0.0529908 3.63131 -0.0529908 3.41935 0.158972L1.2454 2.33302C1.03343 2.54499 1.03343 2.88958 1.2454 3.10154L3.4194 5.27554C3.52594 5.38096 3.66504 5.43426 3.80419 5.43426C3.94334 5.43426 4.08245 5.38101 4.18792 5.27447C4.39988 5.06251 4.39988 4.71792 4.18792 4.50595L2.39866 2.7167Z" fill="white"/>
<path d="M21.7395 10.8692C21.2927 10.8692 20.8764 11.0051 20.5307 11.2366C20.2329 10.3909 19.4253 9.7822 18.4785 9.7822C18.0318 9.7822 17.6154 9.91809 17.2698 10.1496C16.9719 9.30396 16.1643 8.69523 15.2175 8.69523C14.8219 8.69523 14.4501 8.80177 14.1306 8.98764V5.43425C14.1306 4.23528 13.1555 3.26025 11.9566 3.26025C10.7576 3.26025 9.78257 4.23528 9.78257 5.43425V14.6737L7.89339 13.2573C6.77381 12.4171 5.18026 12.5291 4.18785 13.5204C3.55197 14.1563 3.55197 15.19 4.18785 15.8259L11.9283 23.5675C12.8523 24.4914 14.0816 25.0001 15.3882 25.0001H17.9351C21.2308 25.0001 23.9135 22.3185 23.9135 19.0217V13.0432C23.9135 11.8442 22.9385 10.8692 21.7395 10.8692ZM22.8265 19.0216C22.8265 21.7184 20.6319 23.9131 17.9351 23.9131H15.3882C14.3708 23.9131 13.4153 23.5174 12.6969 22.7989L4.95637 15.0574C4.74441 14.8454 4.74441 14.5008 4.95637 14.2889C5.29333 13.953 5.74334 13.7802 6.19554 13.7802C6.56296 13.7802 6.93253 13.8943 7.24232 14.1269L10 16.1954C10.1653 16.3193 10.387 16.3378 10.5696 16.2465C10.7533 16.1541 10.8696 15.9661 10.8696 15.7606V5.43425C10.8696 4.8353 11.3566 4.34728 11.9566 4.34728C12.5566 4.34728 13.0436 4.83535 13.0436 5.43425V13.5867C13.0436 13.8867 13.2871 14.1302 13.5871 14.1302C13.8871 14.1302 14.1306 13.8867 14.1306 13.5867V10.8692C14.1306 10.2703 14.6176 9.78225 15.2176 9.78225C15.8176 9.78225 16.3046 10.2703 16.3046 10.8692V13.5867C16.3046 13.8867 16.5481 14.1302 16.8481 14.1302C17.1481 14.1302 17.3916 13.8867 17.3916 13.5867V11.9562C17.3916 11.3573 17.8785 10.8692 18.4786 10.8692C19.0786 10.8692 19.5655 11.3573 19.5655 11.9562V13.5867C19.5655 13.8867 19.809 14.1302 20.109 14.1302C20.4091 14.1302 20.6526 13.8867 20.6526 13.5867V13.0432C20.6526 12.4442 21.1395 11.9562 21.7395 11.9562C22.3396 11.9562 22.8265 12.4443 22.8265 13.0432V19.0216Z" fill="white"/>
</g>
<defs>
<clipPath id="clip0">
<rect width="25" height="25" fill="white"/>
</clipPath>
</defs>
</svg>

<svg width="25" height="25" fill="none" xmlns="http://www.w3.org/2000/svg"><g clip-path="url(#clip0)" fill="#fff"><path d="M22.283 2.173h-6.522a.544.544 0 000 1.087h6.522a.544.544 0 000-1.087z"/><path d="M22.668 2.333L20.494.159a.544.544 0 00-.769.768l1.79 1.79-1.79 1.79a.544.544 0 00.769.768l2.174-2.174a.544.544 0 000-.768zm-14.516-.16H1.63a.544.544 0 000 1.087h6.522a.544.544 0 000-1.087z"/><path d="M2.399 2.717L4.188.927A.544.544 0 003.419.16L1.245 2.333a.544.544 0 000 .769L3.42 5.276a.546.546 0 00.769-.002.544.544 0 000-.768l-1.79-1.79zM21.74 10.87c-.447 0-.864.135-1.21.367a2.18 2.18 0 00-2.052-1.455c-.446 0-.863.136-1.208.368a2.18 2.18 0 00-2.053-1.455c-.395 0-.767.107-1.086.293V5.434a2.176 2.176 0 00-2.174-2.174 2.176 2.176 0 00-2.174 2.174v9.24l-1.89-1.417a2.85 2.85 0 00-3.705.263 1.632 1.632 0 000 2.306l7.74 7.741A4.862 4.862 0 0015.388 25h2.547a5.985 5.985 0 005.979-5.978v-5.979a2.176 2.176 0 00-2.175-2.174zm1.087 8.152a4.897 4.897 0 01-4.892 4.891h-2.547a3.78 3.78 0 01-2.691-1.114l-7.74-7.742a.544.544 0 010-.768 1.753 1.753 0 011.239-.509c.367 0 .737.114 1.046.347L10 16.195a.545.545 0 00.87-.434V5.434a1.088 1.088 0 012.174 0v8.153a.544.544 0 001.087 0v-2.718a1.088 1.088 0 012.174 0v2.718a.544.544 0 001.087 0v-1.63a1.088 1.088 0 012.174 0v1.63a.544.544 0 001.087 0v-.544a1.088 1.088 0 012.174 0v5.979z"/></g><defs><clipPath id="clip0"><path fill="#fff" d="M0 0h25v25H0z"/></clipPath></defs></svg>
